X:31
T:Minuet,A. JClw.31
M:3/4
L:1/8
Q:1/4=140
S:J.Clews MS,Stoke-upon-Tern,Shrops.1832
A:N. Shropshire
Z:Neil Brookes 2006
K:G
G2G2G2|GD BG dB|g2 fedc|B2A2G2|!
{G}A2A2A2|A>cB>d Dc|Bd c2B2|{B}A6:|!
|:d2d2d2|d>Bc>AB>G|c2c2c2|c>AB>GA>F|!
B2B2B2|B>Gc>Ad>B|e>cf>dg>e|Gc{B}A4|G6:|

